X:64
T:Prince Ferdinand
M:2/4
L:1/8
B:Thompson's Compleat Collection of 200 Favourite Country Dances, vol. 3 (London, 1773)
Z:Transcribed and edited by Flynn Titford-Mock, 2007
Z:abc's:AK/Fiddler's Companion
K:D
AB/c/ dd | fd f2 | af (a/g/f/e/) | dAFD | AB/c/ dd | fd f2 | af (a/g/f/e/) | d2 D2 :|
|: ggff | gg f2 | fe/d/ cd | (e/d/c/B/) A2 | AB/c/ dd | fd f2 | af (a/g/f/e/) | d2 D2 :|

